!!!COM: Varèse, Edgard [Edgar] (Victor Achille Charles)
!!!OTL: Octandre for Eight Instruments
!!!OMV: Movement 3: Grave - Animé et jubilatoire (Animated and Jubilant)
!!!example: 432
!!!work: Var-4
**kern	**dynam	**kern	**dynam	**kern	**dynam	**kern	**dynam	**kern	**dynam	**kern	**dynam	**kern	**dynam	**kern	**dynam
*part8	*part8	*part7	*part7	*part6	*part6	*part5	*part5	*part4	*part4	*part3	*part3	*part2	*part2	*part1	*part1
*staff8	*	*staff7	*	*staff6	*	*staff5	*	*staff4	*	*staff3	*	*staff2	*	*staff1	*
*I"Contrabass	*	*I"Trombone	*	*I"Trumpet in C	*	*I"Horn in F	*	*I"Bassoon	*	*I"Oboe	*	*I"Clarinet in Eb	*	*I"Flute	*
*I'Cb.	*	*I'Tbn.	*	*I'C Tpt.	*	*I'Hn.	*	*I'Bsn.	*	*I'Ob.	*	*I'Eb Cl.	*	*I'Fl.	*
*clefF4	*	*clefF4	*	*clefG2	*	*clefG2	*	*clefF4	*	*clefG2	*	*clefG2	*	*clefG2	*
*ITrd0c0	*	*	*	*	*	*ITrd4c7	*	*	*	*	*	*ITrd-2c-3	*	*	*
*k[]	*	*k[]	*	*k[]	*	*k[b-]	*	*k[]	*	*k[]	*	*k[b-e-a-]	*	*k[]	*
*	*	*	*	*	*	*	*	*	*	*	*	*	*	*	*
*M4/4	*	*M4/4	*	*M4/4	*	*M4/4	*	*M4/4	*	*M4/4	*	*M4/4	*	*M4/4	*
=24	=24	=24	=24	=24	=24	=24	=24	=24	=24	=24	=24	=24	=24	=24	=24
!	!	!	!	!LO:TX:a:t=(sourd.)	!	!	!	!	!	!	!	!	!	!	!
8r	.	8r	.	4r	.	8r	.	8r	.	8r	.	8r	.	8r	.
!	!	!	!	!	!	!	!	!	!	!	!	!	!	!LO:TX:t=[quarter]=120	!
!	!	!	!	!	!	!	!	!	!	!	!	!	!	!LO:TX:a:B:t=Subitement  Très vif et nerveux	!
!LO:TX:a:t=sff	!	!LO:TX:a:t=sff	!	!	!	!LO:TX:a:t=sff	!	!LO:TX:a:t=sff	!	!LO:TX:a:t=sff	!	!LO:TX:a:t=sff	!	!LO:TX:a:t=sff	!
[8FF#X^ [8D	p	[8BB^	p	.	.	[8g^	p	[8CC#X^	p	[8an^	p	[8cc^	p	[8g#X^	p
2.FF#,] 2.D]	fff < [	2.BB,]	ff < [	[4gg^	fff	2.g]	fff < [	2.CC#,]	ff < [	2.a,]	fff < [	2.cc,]	fff < [	2.g#,]	fff < [
.	.	.	.	(8.ggL]	.	.	.	.	.	.	.	.	.	.	.
.	.	.	.	16ffJk)	.	.	.	.	.	.	.	.	.	.	.
.	.	.	.	16ee^LL	.	.	.	.	.	.	.	.	.	.	.
.	.	.	.	16rJ	.	.	.	.	.	.	.	.	.	.	.
.	.	.	.	[8gg^J	.	.	.	.	.	.	.	.	.	.	.
=25	=25	=25	=25	=25	=25	=25	=25	=25	=25	=25	=25	=25	=25	=25	=25
*M5/4	*	*M5/4	*	*M5/4	*	*M5/4	*	*M5/4	*	*M5/4	*	*M5/4	*	*M5/4	*
!	!	!	!	!	!	!	!	!	!	!	!	!	!	!LO:TX:t=[quarter]=132	!
8r	.	8r	.	2.gg_	.	8r	.	8r	fff	8r	.	8r	.	8r	.
8FF#X^ 8D	fff	8BB^	ff	.	.	8g^	ff	8CC#X^	.	8a^	fff	8cc^	fff	8g#X^	fff
8r	.	8r	.	.	.	8r	.	8r	.	8r	.	8r	.	8r	.
16FF#^LL 16D	.	16BB^LL	.	.	.	16g^LL	.	16CC#^LL	.	16a^LL	.	16cc^LL	.	16g#^LL	.
16FF#^JJ 16D	.	16BB^JJ	.	.	.	16g^JJ	.	16CC#^JJ	.	16a^JJ	.	16cc^JJ	.	16g#^JJ	.
4r	.	4r	.	.	.	4r	.	4r	.	4r	.	4r	.	4r	.
12FF#~L 12D	.	12BB~L	.	2gg_	.	12g~L	.	12CC#~L	.	12a~L	.	12cc~L	.	12g#~L	.
12FF#~ 12D	.	12BB~	.	.	.	12g~	.	12CC#~	.	12a~	.	12cc~	.	12g#~	.
[12FF#^J [12D	.	[12BB^J	.	.	.	[12g^J	.	[12CC#^J	.	[12a^J	.	[12cc^J	.	[12g#^J	.
12FF#L] 12D]	.	12BBL]	.	.	.	12gL]	.	12CC#L]	.	12aL]	.	12ccL]	.	12g#L]	.
12FF#^J 12D	.	12BB^J	.	.	.	12g^J	.	12CC#^J	.	12a^J	.	12cc^J	.	12g#^J	.
12r	.	12r	.	.	.	12r	.	12r	.	12r	.	12r	.	12r	.
=26	=26	=26	=26	=26	=26	=26	=26	=26	=26	=26	=26	=26	=26	=26	=26
*M5/8	*	*M5/8	*	*M5/8	*	*M5/8	*	*M5/8	*	*M5/8	*	*M5/8	*	*M5/8	*
8r	.	8r	.	(8.ggL]	.	8r	.	8r	.	8r	.	8r	.	8r	.
*tremolo	*	*	*	*	*	*	*	*	*	*	*	*	*	*	*
32FF#X 32DLLL	p <	[4.BB	pp <	.	.	[4.g	p <	[4.CC#X^	sf p <	[4.a^	sf p <	[4.cc^	sf p <	[4.g#X	sf p <
32FF#X 32D	.	.	.	.	.	.	.	.	.	.	.	.	.	.	.
32FF#X 32D	.	.	.	16ffJk	.	.	.	.	.	.	.	.	.	.	.
32FF#X 32D	.	.	.	.	.	.	.	.	.	.	.	.	.	.	.
32FF#X 32D	.	.	.	8eeL)	.	.	.	.	.	.	.	.	.	.	.
32FF#X 32D	.	.	.	.	.	.	.	.	.	.	.	.	.	.	.
32FF#X 32D	.	.	.	.	.	.	.	.	.	.	.	.	.	.	.
32FF#X 32D	.	.	.	.	.	.	.	.	.	.	.	.	.	.	.
32FF#X 32D	.	.	.	8ee'J	.	.	.	.	.	.	.	.	.	.	.
32FF#X 32D	.	.	.	.	.	.	.	.	.	.	.	.	.	.	.
32FF#X 32D	.	.	.	.	.	.	.	.	.	.	.	.	.	.	.
32FF#X 32DJJJ	.	.	.	.	.	.	.	.	.	.	.	.	.	.	.
*Xtremolo	*	*	*	*	*	*	*	*	*	*	*	*	*	*	*
8FF#^ 8D	fff [	8BB]	ff [	[8ee^	.	8g]	ff [	8CC#]	fff [	8a]	fff [	8cc]	fff [	8g#]	fff [
=27	=27	=27	=27	=27	=27	=27	=27	=27	=27	=27	=27	=27	=27	=27	=27
*M4/4	*	*M4/4	*	*M4/4	*	*M4/4	*	*M4/4	*	*M4/4	*	*M4/4	*	*M4/4	*
8r	.	8r	.	1ee]	.	8r	.	8r	.	8r	.	8r	.	8r	.
[8FF#X^ [8D	.	[8BB^	ff	.	.	[8g^	ff	[8CC#X^	fff	[8a^	fff	[8cc^	fff	[8g#X^	fff
4FF#] 4D]	.	4BB]	.	.	.	4g]	.	4CC#]	.	4a]	.	4cc]	.	4g#]	.
8FF# 8D	.	8BB	.	.	.	8g	.	8CC#	.	8a	.	8cc'	.	8g#	.
4FF#^ 4D	.	4BB^	.	.	.	4g^	.	4CC#^	.	4a^	.	4cc^	.	4g#^	.
[8FF#^ [8D	.	[8BB^	.	.	.	[8g^	.	[8CC#^	.	[8a^	.	[8cc^	.	[8g#^	.
=28	=28	=28	=28	=28	=28	=28	=28	=28	=28	=28	=28	=28	=28	=28	=28
*M3/4	*	*M3/4	*	*M3/4	*	*M3/4	*	*M3/4	*	*M3/4	*	*M3/4	*	*M3/4	*
12FF#L] 12D]	.	12BBL]	.	4gg	.	12gL]	.	12CC#XL]	.	12aL]	.	12ccL]	.	12g#XL]	.
12FF#X^ 12D	.	12BB^	.	.	.	12g^	.	12CC^	.	12a^	.	12cc^	.	12g^	.
12FF#^J 12D	.	12BB^J	.	.	.	12g^J	.	12CC^J	.	12a^J	.	12cc^J	.	12g^J	.
8r	.	8r	.	(16ffLL	.	8r	.	8r	.	8r	.	8r	.	8r	.
.	.	.	.	16ggJ)	.	.	.	.	.	.	.	.	.	.	.
8FF#^ 8D	.	8BB^	.	[8ff^J	.	8g^	.	8CC^	.	8a^	.	8cc^	.	8g^	.
8r	.	8r	.	8ffL]	.	8r	.	8r	.	8r	.	8r	.	8r	.
16FF#^LL 16D	.	16BB^LL	.	8ee^,J	.	16g^LL	.	16CC^LL	.	16a^LL	.	16cc^LL	.	16g^LL	.
16FF#^JJ 16D	.	16BB^JJ	.	.	.	16g^JJ	.	16CC^JJ	.	16a^JJ	.	16cc^JJ	.	16g^JJ	.
=29	=29	=29	=29	=29	=29	=29	=29	=29	=29	=29	=29	=29	=29	=29	=29
*M4/4	*	*M4/4	*	*M4/4	*	*M4/4	*	*M4/4	*	*M4/4	*	*M4/4	*	*M4/4	*
8r	.	8r	.	16ee^KL	.	8r	.	8r	.	8r	.	8r	.	8r	.
.	.	.	.	[8.gg^J	.	.	.	.	.	.	.	.	.	.	.
[8FF#X^ [8D	.	[8BB^	.	.	.	[8g^	.	[8CC#X^	.	[8a^	.	[8cc^	.	[8g#X^	.
4FF#] 4D]	.	4BB]	.	2.gg_	.	4g]	.	4CC#]	.	4a]	.	4cc]	.	4g#]	.
8FF# 8D	.	8BB	.	.	.	8g	.	8CC#	.	8a	.	8cc	.	8g#	.
4FF#^ 4D	.	4BB^	.	.	.	4g^	.	4CC#^	.	4a^	.	4cc^	.	4g#^	.
[8FF#^ [8D	.	[8BB^	.	.	.	[8g^	.	[8CC#^	.	[8a^	.	[8cc^	.	[8g#^	.
=30	=30	=30	=30	=30	=30	=30	=30	=30	=30	=30	=30	=30	=30	=30	=30
12FF#L] 12D]	.	12BBL]	.	4gg]	.	12gL]	.	12CC#L]	.	12aL]	.	12ccL]	.	12g#XL]	.
12FF#X^ 12D	.	12BB^	.	.	.	12g^	.	12CC#X^	.	12a^	.	12cc^	.	12g^	.
12FF#^J 12D	.	12BB^J	.	.	.	12g^J	.	12CC#^J	.	12a^J	.	12cc^J	.	12g^J	.
8r	.	8r	.	(16ffKL	.	8r	.	8r	.	8r	.	8r	.	8r	.
.	.	.	.	[8.ee^J)	.	.	.	.	.	.	.	.	.	.	.
8FF#^ 8D	.	8BB^	.	.	.	8g^	.	8CC#^	.	8a^	.	8cc^	.	8g^	.
8r	.	8r	.	4ee]	.	8r	.	8r	.	8r	.	8r	.	8r	.
16FF#^LL 16D	.	16BB^LL	.	.	.	16g^LL	.	16CC#^LL	.	16a^LL	.	16cc^LL	.	16g^LL	.
16FF#^JJ 16D	.	16BB^JJ	.	.	.	16g^JJ	.	16CC#^JJ	.	16a^JJ	.	16cc^JJ	.	16g^JJ	.
4r	.	4r	.	[4ee^	.	4r	.	4r	.	4r	.	4r	.	4r	.
=31	=31	=31	=31	=31	=31	=31	=31	=31	=31	=31	=31	=31	=31	=31	=31
*M3/4	*	*M3/4	*	*M3/4	*	*M3/4	*	*M3/4	*	*M3/4	*	*M3/4	*	*M3/4	*
8r	.	8r	.	2.ee_	> ]	8r	.	8r	.	8r	.	8r	.	8r	.
8FF#X^ 8D	.	8BB^	.	.	.	8g^	.	8CC#X^	.	8a^	.	8cc^	.	8g#X^	.
4r	.	4r	.	.	.	4r^	.	4r^	.	4r^	.	4r^	.	4r^	.
8FF#^ 8D	.	8BB^	.	.	.	8g^	.	8CC#^	.	8a^	.	8cc^	.	8g#^	.
8r	.	8r	.	.	.	8r	.	8r	.	8r	.	8r	.	8r	.
=32	=32	=32	=32	=32	=32	=32	=32	=32	=32	=32	=32	=32	=32	=32	=32
*M4/4	*	*M4/4	*	*M4/4	*	*M4/4	*	*M4/4	*	*M4/4	*	*M4/4	*	*M4/4	*
4r	.	4r	.	1ee]	mp < [	4r	.	4r	.	4r	.	4r	.	4r	.
16FF#X^LL 16D	fff	16BB^LL	ff	.	.	16g^LL	ff	16CC#X^LL	fff	16a^LL	fff	16cc^LL	fff	16g#X^LL	fff
16FF#^JJ 16D	.	16BB^JJ	.	.	.	16g^JJ	.	16CC#^JJ	.	16a^JJ	.	16cc^JJ	.	16g#^JJ	.
8r	.	8r	.	.	.	8r	.	8r	.	8r	.	8r	.	8r	.
2r	.	2r	.	.	.	2r	.	2r	.	2r	.	2r	.	2r	.
=	=	=	=	=	=	=	=	=	=	=	=	=	=	=	=
*-	*-	*-	*-	*-	*-	*-	*-	*-	*-	*-	*-	*-	*-	*-	*-
!!!system-decoration: [(s1,s2,s3,s4,s5,s6,s7,s8)]
!!!CDT: 1883/12/22-1965/11/06
!!!CBL: Paris, France
!!!CDL: New York, United States
!!!CNT: French, American
!!!AGN: Instrumental; Chamber
!!!MCN: Schmitz, Robert
!!!MDT: 1924/01/13
!!!MGN: unknown
!!!MLC: New York, New York, United States of America
!!!MPD: 1924
!!!MPN:
!!!ODT: 1923
!!!PDT: 1923
!!!excerpt-start-measure: 24
!!!excerpt-end-measure: 32
!!!excerpt-start-time: 1:01
!!!excerpt-end-time: 1:16
!!!EEV: 2020/07/28
!!!ONB: Converted from MusicXML on 2020/07/28
